X:1
T: Mel Briscoe
C:Bruce Shawyer
R:Strathspey
Q:128
K:Em
M:4/4
L:1/16
|:B3A G3A BG3 G4|G3F E3F G8|G3F E3F GG3 E4|F3E D3^C B,8|
DF3 F4 DF3 F4|G3F E3F G8|CE3 E4 CE3 E3D|E8-E8|
B3e e3d Be3 e4|B3^c d3e f8|ge3 e4 ec3 c4|d3c B3d e8|
ec3 c4 cA3 A4|dB3 B3A G8|EG3 G4 Ac3 c4|BB3 B3^d e8:|
